.local/share/icons/Gruvbox-Plus-Dark/panel/16/hangouts-working.svg

<svg xmlns="http://www.w3.org/2000/svg" width="16" height="16" version="1.1">
 <defs>
  <style id="current-color-scheme" type="text/css">
   .ColorScheme-Text { color:#ebdbb2; } .ColorScheme-Highlight { color:#458588; }
  </style>
 </defs>
 <path style="fill:currentColor" class="ColorScheme-Text" d="M 7.5 1 C 3.9101491 1 1 3.9101491 1 7.5 C 1.00378 10.908965 3.6405581 13.735847 7.0410156 13.976562 C 7.0384989 14.874999 7 16 7 16 C 10.949542 15.510867 14 12.081917 14 8 C 14 7.907964 13.991001 7.8300869 13.988281 7.7421875 C 13.993694 7.6615382 13.9976 7.580795 14 7.5 C 14 3.9101491 11.089851 1 7.5 1 z M 3.5 6 A 1.5 1.5 0 0 1 5 7.5 A 1.5 1.5 0 0 1 3.5 9 A 1.5 1.5 0 0 1 2 7.5 A 1.5 1.5 0 0 1 3.5 6 z M 7.5 6 A 1.5 1.5 0 0 1 9 7.5 A 1.5 1.5 0 0 1 7.5 9 A 1.5 1.5 0 0 1 6 7.5 A 1.5 1.5 0 0 1 7.5 6 z M 11.5 6 A 1.5 1.5 0 0 1 13 7.5 A 1.5 1.5 0 0 1 11.5 9 A 1.5 1.5 0 0 1 10 7.5 A 1.5 1.5 0 0 1 11.5 6 z"/>
</svg>

<svg width="16" height="16" version="1.1" xmlns="http://www.w3.org/2000/svg">
  <defs>
    <style id="current-color-scheme" type="text/css">.ColorScheme-Text { color:#ebdbb2; } .ColorScheme-Highlight { color:#458588; } .ColorScheme-NeutralText { color:#fe8019; } .ColorScheme-PositiveText { color:#689d6a; } .ColorScheme-NegativeText { color:#fb4934; }</style>
  </defs>
  <path class="ColorScheme-Text" d="m7.5 1c-3.59 0-6.5 2.91-6.5 6.5 0.00378 3.409 2.641 6.236 6.041 6.477-0.002517 0.8984-0.04102 2.023-0.04102 2.023 3.95-0.4891 7-3.918 7-8 0-0.09204-0.008999-0.1699-0.01172-0.2578 0.005413-0.08065 0.009319-0.1614 0.01172-0.2422 0-3.59-2.91-6.5-6.5-6.5zm-4 5a1.5 1.5 0 0 1 1.5 1.5 1.5 1.5 0 0 1-1.5 1.5 1.5 1.5 0 0 1-1.5-1.5 1.5 1.5 0 0 1 1.5-1.5zm4 0a1.5 1.5 0 0 1 1.5 1.5 1.5 1.5 0 0 1-1.5 1.5 1.5 1.5 0 0 1-1.5-1.5 1.5 1.5 0 0 1 1.5-1.5zm4 0a1.5 1.5 0 0 1 1.5 1.5 1.5 1.5 0 0 1-1.5 1.5 1.5 1.5 0 0 1-1.5-1.5 1.5 1.5 0 0 1 1.5-1.5z" fill="currentColor"/>
</svg>
